X: 18906
T: Inches To Dublin
R: reel
M: 4/4
K: Bminor
B2fe f~B3|FGfe f~B3|dcB/c/d cBAf|gf ef2e dc|
Bffe f~B3|FGfe f~B3|dcB/c/d cBAc|1 eAcA B2dc:|2 eAcA B2GB||
Fddc dcBA|G2dd2c BA|cEed cBAB|cFgf edce|
Fddc dcBA|G2dd2 c BA|cFgf edce|1 fgec ~B3A:|2 faec Bcdc||

